; generated by PrusaSlicer 2.8.1+win64 on 2024-12-02 at 14:11:49 UTC

; 

; external perimeters extrusion width = 0.42mm
; perimeters extrusion width = 0.44mm
; infill extrusion width = 0.44mm
; solid infill extrusion width = 0.44mm
; top infill extrusion width = 0.40mm
; support material extrusion width = 0.36mm
; first layer extrusion width = 0.42mm

M201 X500 Y500 Z100 E5000 ; sets maximum accelerations, mm/sec^2
M203 X500 Y500 Z10 E60 ; sets maximum feedrates, mm / sec
M204 S500 T1000 ; sets acceleration (S) and retract acceleration (R), mm/sec^2
M205 X8.00 Y8.00 Z0.40 E5.00 ; sets the jerk limits, mm/sec
M205 S0 T0 ; sets the minimum extruding and travel feed rate, mm/sec

; printing object Gimbal Object hold Clip v1.stl id:0 copy 0
; stop printing object Gimbal Object hold Clip v1.stl id:0 copy 0

;TYPE:Custom
G90 ; use absolute coordinates
M83 ; extruder relative mode
M104 S150 ; set temporary nozzle temp to prevent oozing during homing
M140 S55 ; set final bed temp
G4 S30 ; allow partial nozzle warmup
G28 ; home all axis
G1 Z50 F240
G1 X2.0 Y10 F3000
M104 S205 ; set final nozzle temp
M190 S55 ; wait for bed temp to stabilize
M109 S205 ; wait for nozzle temp to stabilize
G1 Z0.28 F240
G92 E0
G1 X2.0 Y140 E10 F1500 ; prime the nozzle
G1 X2.3 Y140 F5000
G92 E0
G1 X2.3 Y10 E10 F1200 ; prime the nozzle
G92 E0
G21 ; set units to millimeters
G90 ; use absolute coordinates
M83 ; use relative distances for extrusion
; Filament gcode
M107
;LAYER_CHANGE
;Z:0.2
;HEIGHT:0.2
G1 E-5 F3600
G1 Z.2 F9000
G1 X102.505 Y66.101
G1 Z.2
G1 E5 F2400
M204 S500
;TYPE:Skirt/Brim
;WIDTH:0.42
G1 F1200
G1 X103.516 Y64.88 E.0497
G1 X105.408 Y64.272 E.06231
G1 X118.746 Y64.351 E.41821
G1 X120.154 Y64.687 E.04539
G1 X125.508 Y67.364 E.18769
G1 X126.939 Y68.8 E.06356
G1 X130.858 Y76.709 E.27676
G1 X131.127 Y78.752 E.06461
G1 X119.177 Y138.334 E1.90536
G1 X118.305 Y139.962 E.05791
G1 X114.29 Y143.978 E.17805
G1 X112.926 Y144.784 E.04968
G1 X112.035 Y144.911 E.02822
G1 X103.439 Y144.911 E.26952
G1 X102.431 Y144.748 E.03202
G1 X98.24 Y143.345 E.13857
G1 X84.854 Y137.991 E.45204
G1 X83.784 Y137.285 E.04019
G1 X82.445 Y135.946 E.05937
G1 X81.638 Y134.583 E.04966
G1 X81.511 Y133.692 E.02822
G1 X81.56 Y120.525 E.41284
G1 X84.345 Y104.834 E.49967
G1 X84.59 Y104.088 E.02462
G1 X102.48 Y66.155 E1.315
G1 E-3.5 F3600
;WIPE_START
G1 F7200
G1 X102.505 Y66.101 E-.02827
G1 X103.516 Y64.88 E-.75299
G1 X104.957 Y64.417 E-.71874
;WIPE_END
; printing object Gimbal Object hold Clip v1.stl id:0 copy 0
G1 X118.728 Y68.878 F9000
G1 E5 F2400
;TYPE:Support material
G1 F1200
G1 X121.405 Y68.878 E.08394
G1 X121.405 Y70.216 E.04195
G1 X124.082 Y70.216 E.08394
G1 X124.082 Y75.766 E.17402
G1 X109.522 Y68.899 E.50475
G1 X109.827 Y67.539 E.0437
G1 X118.728 Y67.539 E.27908
G1 X118.728 Y68.821 E.0402
G1 X118.728 Y68.821 F9000
G1 X123.658 Y75.379
G1 F1200
G1 X123.658 Y70.555 E.15125
G1 X123.239 Y70.555 E.01314
G1 X123.239 Y74.993 E.13915
G1 X122.82 Y74.796 E.01452
G1 X122.82 Y70.555 E.13297
G1 X122.401 Y70.555 E.01314
G1 X122.401 Y74.598 E.12677
G1 X121.982 Y74.401 E.01452
G1 X121.982 Y70.555 E.12059
G1 X121.563 Y70.555 E.01314
G1 X121.563 Y74.203 E.11438
G1 X121.144 Y74.005 E.01453
G1 X121.144 Y70.555 E.10817
G1 X121.065 Y70.555 E.00248
G1 X121.065 Y69.217 E.04195
G1 X120.725 Y69.217 E.01066
G1 X120.725 Y73.808 E.14395
G1 X120.306 Y73.61 E.01453
G1 X120.306 Y69.217 E.13774
G1 X119.888 Y69.217 E.01311
G1 X119.888 Y73.413 E.13156
G1 X119.469 Y73.215 E.01453
G1 X119.469 Y69.217 E.12535
G1 X119.05 Y69.217 E.01314
G1 X119.05 Y73.017 E.11915
G1 X118.631 Y72.82 E.01452
G1 X118.631 Y69.217 E.11297
G1 X118.388 Y69.217 E.00762
G1 X118.388 Y67.878 E.04198
G1 X118.212 Y67.878 E.00552
G1 X118.212 Y72.622 E.14874
G1 X117.793 Y72.425 E.01452
G1 X117.793 Y67.878 E.14257
G1 X117.374 Y67.878 E.01314
G1 X117.374 Y72.227 E.13636
G1 X116.955 Y72.029 E.01453
G1 X116.955 Y67.878 E.13015
G1 X116.536 Y67.878 E.01314
G1 X116.536 Y71.832 E.12397
G1 X116.117 Y71.634 E.01453
G1 X116.117 Y67.878 E.11777
G1 X115.698 Y67.878 E.01314
G1 X115.698 Y71.437 E.11159
G1 X115.279 Y71.239 E.01453
G1 X115.279 Y67.878 E.10538
G1 X114.86 Y67.878 E.01314
G1 X114.86 Y71.041 E.09917
G1 X114.441 Y70.844 E.01452
G1 X114.441 Y67.878 E.093
G1 X114.022 Y67.878 E.01314
G1 X114.022 Y70.646 E.08679
G1 X113.603 Y70.449 E.01452
G1 X113.603 Y67.878 E.08061
G1 X113.184 Y67.878 E.01314
G1 X113.184 Y70.251 E.0744
G1 X112.765 Y70.053 E.01453
G1 X112.765 Y67.878 E.0682
G1 X112.346 Y67.878 E.01314
G1 X112.346 Y69.856 E.06202
G1 X111.927 Y69.658 E.01453
G1 X111.927 Y67.878 E.05581
G1 X111.508 Y67.878 E.01314
G1 X111.508 Y69.461 E.04963
G1 X111.089 Y69.263 E.01453
G1 X111.089 Y67.878 E.04343
G1 X110.67 Y67.878 E.01314
G1 X110.67 Y69.065 E.03722
G1 X110.251 Y68.868 E.01452
G1 X110.251 Y67.709 E.03634
G1 E-3.5 F3600
;WIPE_START
G1 F7200
G1 X110.251 Y68.868 E-.55052
G1 X110.67 Y69.065 E-.21993
G1 X110.67 Y67.878 E-.56382
G1 X111.019 Y67.878 E-.16573
;WIPE_END
G1 X87.404 Y105.926 F9000
G1 E5 F2400
G1 F1200
G1 X109.358 Y116.28 E.76107
G1 X109.358 Y117.629 E.0423
G1 X100.762 Y117.629 E.26952
G1 X100.762 Y114.952 E.08394
G1 X95.408 Y114.952 E.16787
G1 X95.408 Y113.614 E.04195
G1 X92.731 Y113.614 E.08394
G1 X92.731 Y112.275 E.04198
G1 X88.716 Y112.275 E.12589
G1 X88.716 Y110.936 E.04198
G1 X87.377 Y110.936 E.04198
G1 X87.377 Y105.94 E.15665
G1 X87.377 Y105.94 F9000
G1 X108.994 Y117.459
G1 F1200
G1 X108.994 Y116.484 E.03057
G1 X108.575 Y116.286 E.01453
G1 X108.575 Y117.29 E.03148
G1 X108.156 Y117.29 E.01314
G1 X108.156 Y116.089 E.03766
G1 X107.737 Y115.891 E.01453
G1 X107.737 Y117.29 E.04386
G1 X107.318 Y117.29 E.01314
G1 X107.318 Y115.693 E.05007
G1 X106.899 Y115.496 E.01452
G1 X106.899 Y117.29 E.05625
G1 X106.48 Y117.29 E.01314
G1 X106.48 Y115.298 E.06246
G1 X106.061 Y115.101 E.01452
G1 X106.061 Y117.29 E.06863
G1 X105.642 Y117.29 E.01314
G1 X105.642 Y114.903 E.07484
G1 X105.223 Y114.705 E.01453
G1 X105.223 Y117.29 E.08105
G1 X104.804 Y117.29 E.01314
G1 X104.804 Y114.508 E.08723
G1 X104.385 Y114.31 E.01453
G1 X104.385 Y117.29 E.09344
G1 X103.966 Y117.29 E.01314
G1 X103.966 Y114.113 E.09961
G1 X103.547 Y113.915 E.01453
G1 X103.547 Y117.29 E.10582
G1 X103.128 Y117.29 E.01314
G1 X103.128 Y113.717 E.11203
G1 X102.709 Y113.52 E.01452
G1 X102.709 Y117.29 E.11821
G1 X102.29 Y117.29 E.01314
G1 X102.29 Y113.322 E.12441
G1 X101.871 Y113.125 E.01452
G1 X101.871 Y117.29 E.13059
G1 X101.453 Y117.29 E.01311
G1 X101.453 Y112.927 E.1368
G1 X101.034 Y112.729 E.01453
G1 X101.034 Y114.613 E.05907
G1 X100.615 Y114.613 E.01314
G1 X100.615 Y112.532 E.06525
G1 X100.196 Y112.334 E.01453
G1 X100.196 Y114.613 E.07146
G1 X99.777 Y114.613 E.01314
G1 X99.777 Y112.136 E.07766
G1 X99.358 Y111.939 E.01452
G1 X99.358 Y114.613 E.08384
G1 X98.939 Y114.613 E.01314
G1 X98.939 Y111.741 E.09005
G1 X98.52 Y111.544 E.01452
G1 X98.52 Y114.613 E.09623
G1 X98.101 Y114.613 E.01314
G1 X98.101 Y111.346 E.10243
G1 X97.682 Y111.148 E.01453
G1 X97.682 Y114.613 E.10864
G1 X97.263 Y114.613 E.01314
G1 X97.263 Y110.951 E.11482
G1 X96.844 Y110.753 E.01453
G1 X96.844 Y114.613 E.12103
G1 X96.425 Y114.613 E.01314
G1 X96.425 Y110.556 E.1272
G1 X96.006 Y110.358 E.01453
G1 X96.006 Y114.613 E.13341
G1 X95.748 Y114.613 E.00809
G1 X95.748 Y113.274 E.04198
G1 X95.587 Y113.274 E.00505
G1 X95.587 Y110.16 E.09764
G1 X95.168 Y109.963 E.01452
G1 X95.168 Y113.274 E.10381
G1 X94.749 Y113.274 E.01314
G1 X94.749 Y109.765 E.11002
G1 X94.33 Y109.568 E.01452
G1 X94.33 Y113.274 E.1162
G1 X93.911 Y113.274 E.01314
G1 X93.911 Y109.37 E.12241
G1 X93.492 Y109.172 E.01453
G1 X93.492 Y113.274 E.12862
G1 X93.073 Y113.274 E.01314
G1 X93.073 Y108.975 E.13479
G1 X92.654 Y108.777 E.01453
G1 X92.654 Y111.936 E.09905
G1 X92.235 Y111.936 E.01314
G1 X92.235 Y108.58 E.10523
G1 X91.816 Y108.382 E.01453
G1 X91.816 Y111.936 E.11143
G1 X91.397 Y111.936 E.01314
G1 X91.397 Y108.184 E.11764
G1 X90.978 Y107.987 E.01452
G1 X90.978 Y111.936 E.12382
G1 X90.559 Y111.936 E.01314
G1 X90.559 Y107.789 E.13003
G1 X90.14 Y107.592 E.01452
G1 X90.14 Y111.936 E.1362
G1 X89.721 Y111.936 E.01314
G1 X89.721 Y107.394 E.14241
G1 X89.302 Y107.196 E.01453
G1 X89.302 Y111.936 E.14862
G1 X89.055 Y111.936 E.00774
G1 X89.055 Y110.597 E.04198
G1 X88.883 Y110.597 E.00539
G1 X88.883 Y106.999 E.11281
G1 X88.464 Y106.801 E.01453
G1 X88.464 Y110.597 E.11902
G1 X88.045 Y110.597 E.01314
G1 X88.045 Y106.416 E.13109
G1 E-3.5 F3600
;WIPE_START
G1 F7200
G1 X88.045 Y109.574 E-1.5
;WIPE_END
G1 X98.65 Y121.081 F9000
G1 E5 F2400
G1 F1200
G1 X99.988 Y121.081 E.04195
G1 X99.988 Y125.096 E.12589
G1 X100.762 Y125.096 E.02427
G1 X100.762 Y123.758 E.04195
G1 X102.101 Y123.758 E.04198
G1 X102.101 Y122.419 E.04198
G1 X109.358 Y122.419 E.22754
G1 X109.358 Y123.758 E.04198
G1 X114.712 Y123.758 E.16787
G1 X114.712 Y127.773 E.12589
G1 X116.051 Y127.773 E.04198
G1 X116.051 Y137.707 E.31147
G1 X114.712 Y137.707 E.04198
G1 X114.712 Y139.046 E.04198
G1 X113.373 Y139.046 E.04198
G1 X113.373 Y140.384 E.04195
G1 X112.035 Y140.384 E.04195
G1 X112.035 Y141.723 E.04198
G1 X103.439 Y141.723 E.26952
G1 X103.439 Y140.384 E.04198
G1 X99.424 Y140.384 E.12589
G1 X99.424 Y139.046 E.04195
G1 X98.085 Y139.046 E.04198
G1 X98.085 Y135.03 E.12592
G1 X86.038 Y135.03 E.37773
G1 X86.038 Y133.692 E.04195
G1 X84.7 Y133.692 E.04195
G1 X84.7 Y121.081 E.39541
G1 X86.038 Y121.081 E.04195
G1 X86.038 Y119.742 E.04198
G1 X98.65 Y119.742 E.39544
G1 X98.65 Y121.024 E.0402
G1 E-3.5 F3600
;WIPE_START
G1 F7200
G1 X98.65 Y119.742 E-.60895
G1 X96.774 Y119.742 E-.89105
;WIPE_END
G1 X115.698 Y137.538 F9000
G1 E5 F2400
G1 F1200
G1 X115.698 Y128.113 E.29551
G1 X115.279 Y128.113 E.01314
G1 X115.279 Y137.368 E.29018
G1 X114.86 Y137.368 E.01314
G1 X114.86 Y128.113 E.29018
G1 X114.441 Y128.113 E.01314
G1 X114.441 Y137.368 E.29018
G1 X114.373 Y137.368 E.00213
G1 X114.373 Y138.706 E.04195
G1 X114.022 Y138.706 E.01101
G1 X114.022 Y124.097 E.45805
G1 X113.603 Y124.097 E.01314
G1 X113.603 Y138.706 E.45805
G1 X113.184 Y138.706 E.01314
G1 X113.184 Y124.097 E.45805
G1 X112.765 Y124.097 E.01314
G1 X112.765 Y140.045 E.50004
G1 X112.346 Y140.045 E.01314
G1 X112.346 Y124.097 E.50004
G1 X111.927 Y124.097 E.01314
G1 X111.927 Y140.045 E.50004
G1 X111.696 Y140.045 E.00724
G1 X111.696 Y141.384 E.04198
G1 X111.508 Y141.384 E.00589
G1 X111.508 Y124.097 E.54202
G1 X111.089 Y124.097 E.01314
G1 X111.089 Y141.384 E.54202
G1 X110.67 Y141.384 E.01314
G1 X110.67 Y124.097 E.54202
G1 X110.251 Y124.097 E.01314
G1 X110.251 Y141.384 E.54202
G1 X109.832 Y141.384 E.01314
G1 X109.832 Y124.097 E.54202
G1 X109.413 Y124.097 E.01314
G1 X109.413 Y141.384 E.54202
G1 X108.994 Y141.384 E.01314
G1 X108.994 Y122.759 E.58397
G1 X108.575 Y122.759 E.01314
G1 X108.575 Y141.384 E.58397
G1 X108.156 Y141.384 E.01314
G1 X108.156 Y122.759 E.58397
G1 X107.737 Y122.759 E.01314
G1 X107.737 Y141.384 E.58397
G1 X107.318 Y141.384 E.01314
G1 X107.318 Y122.759 E.58397
G1 X106.899 Y122.759 E.01314
G1 X106.899 Y141.384 E.58397
G1 X106.48 Y141.384 E.01314
G1 X106.48 Y122.759 E.58397
G1 X106.061 Y122.759 E.01314
G1 X106.061 Y141.384 E.58397
G1 X105.642 Y141.384 E.01314
G1 X105.642 Y122.759 E.58397
G1 X105.223 Y122.759 E.01314
G1 X105.223 Y141.384 E.58397
G1 X104.804 Y141.384 E.01314
G1 X104.804 Y122.759 E.58397
G1 X104.385 Y122.759 E.01314
G1 X104.385 Y141.384 E.58397
G1 X103.966 Y141.384 E.01314
G1 X103.966 Y122.759 E.58397
G1 X103.547 Y122.759 E.01314
G1 X103.547 Y140.045 E.54199
G1 X103.128 Y140.045 E.01314
G1 X103.128 Y122.759 E.54199
G1 X102.709 Y122.759 E.01314
G1 X102.709 Y140.045 E.54199
G1 X102.29 Y140.045 E.01314
G1 X102.29 Y124.097 E.50004
G1 X101.871 Y124.097 E.01314
G1 X101.871 Y140.045 E.50004
G1 X101.453 Y140.045 E.01311
G1 X101.453 Y124.097 E.50004
G1 X101.102 Y124.097 E.01101
G1 X101.102 Y125.436 E.04198
G1 X101.034 Y125.436 E.00213
G1 X101.034 Y140.045 E.45805
G1 X100.615 Y140.045 E.01314
G1 X100.615 Y125.436 E.45805
G1 X100.196 Y125.436 E.01314
G1 X100.196 Y140.045 E.45805
G1 X99.777 Y140.045 E.01314
G1 X99.777 Y125.436 E.45805
G1 X99.649 Y125.436 E.00401
G1 X99.649 Y121.42 E.12592
G1 X99.358 Y121.42 E.00912
G1 X99.358 Y138.706 E.54199
G1 X98.939 Y138.706 E.01314
G1 X98.939 Y121.42 E.54199
G1 X98.52 Y121.42 E.01314
G1 X98.52 Y138.706 E.54199
G1 X98.425 Y138.706 E.00298
G1 X98.425 Y134.691 E.12589
G1 X98.101 Y134.691 E.01016
G1 X98.101 Y120.081 E.45809
G1 X97.682 Y120.081 E.01314
G1 X97.682 Y134.691 E.45809
G1 X97.263 Y134.691 E.01314
G1 X97.263 Y120.081 E.45809
G1 X96.844 Y120.081 E.01314
G1 X96.844 Y134.691 E.45809
G1 X96.425 Y134.691 E.01314
G1 X96.425 Y120.081 E.45809
G1 X96.006 Y120.081 E.01314
G1 X96.006 Y134.691 E.45809
G1 X95.587 Y134.691 E.01314
G1 X95.587 Y120.081 E.45809
G1 X95.168 Y120.081 E.01314
G1 X95.168 Y134.691 E.45809
G1 X94.749 Y134.691 E.01314
G1 X94.749 Y120.081 E.45809
G1 X94.33 Y120.081 E.01314
G1 X94.33 Y134.691 E.45809
G1 X93.911 Y134.691 E.01314
G1 X93.911 Y120.081 E.45809
G1 X93.492 Y120.081 E.01314
G1 X93.492 Y134.691 E.45809
G1 X93.073 Y134.691 E.01314
G1 X93.073 Y120.081 E.45809
G1 X92.654 Y120.081 E.01314
G1 X92.654 Y134.691 E.45809
G1 X92.235 Y134.691 E.01314
G1 X92.235 Y120.081 E.45809
G1 X91.816 Y120.081 E.01314
G1 X91.816 Y134.691 E.45809
G1 X91.397 Y134.691 E.01314
G1 X91.397 Y120.081 E.45809
G1 X90.978 Y120.081 E.01314
G1 X90.978 Y134.691 E.45809
G1 X90.559 Y134.691 E.01314
G1 X90.559 Y120.081 E.45809
G1 X90.14 Y120.081 E.01314
G1 X90.14 Y134.691 E.45809
G1 X89.721 Y134.691 E.01314
G1 X89.721 Y120.081 E.45809
G1 X89.302 Y120.081 E.01314
G1 X89.302 Y134.691 E.45809
G1 X88.883 Y134.691 E.01314
G1 X88.883 Y120.081 E.45809
G1 X88.464 Y120.081 E.01314
G1 X88.464 Y134.691 E.45809
G1 X88.045 Y134.691 E.01314
G1 X88.045 Y120.081 E.45809
G1 X87.626 Y120.081 E.01314
G1 X87.626 Y134.691 E.45809
G1 X87.207 Y134.691 E.01314
G1 X87.207 Y120.081 E.45809
G1 X86.788 Y120.081 E.01314
G1 X86.788 Y134.691 E.45809
G1 X86.378 Y134.691 E.01286
G1 X86.369 Y121.42 E.4161
G1 X85.95 Y121.42 E.01314
G1 X85.95 Y133.352 E.37412
G1 X85.531 Y133.352 E.01314
G1 X85.531 Y121.42 E.37412
G1 X85.112 Y121.42 E.01314
G1 X85.112 Y133.522 E.37945
G1 E-3.5 F3600
;WIPE_START
G1 F7200
G1 X85.112 Y130.364 E-1.5
;WIPE_END
G1 X88.89 Y104.939 F9000
G1 E5 F2400
;TYPE:Perimeter
;WIDTH:0.419999
G1 F1200
G1 X105.898 Y68.877 E1.25014
G1 X126.584 Y78.634 E.71712
G1 X121.706 Y88.977 E.35855
G1 X109.576 Y114.696 E.89159
G1 X88.944 Y104.965 E.71524
G1 X88.944 Y104.965 F9000
G1 X88.388 Y105.12
G1 F1200
G1 X105.718 Y68.375 E1.27382
G1 X127.086 Y78.453 E.74076
G1 X122.047 Y89.138 E.37041
G1 X109.757 Y115.198 E.9034
G1 X88.442 Y105.145 E.73892
G1 X88.442 Y105.145 F9000
G1 X87.886 Y105.3
;TYPE:External perimeter
G1 F1200
G1 X105.538 Y67.873 E1.29746
G1 X127.588 Y78.273 E.7644
G1 X122.388 Y89.298 E.3822
G1 X109.937 Y115.7 E.91525
G1 X87.94 Y105.325 E.76257
G1 E-3.5 F3600
;WIPE_START
G1 F7200
G1 X87.886 Y105.3 E-.02827
G1 X89.208 Y102.498 E-1.47173
;WIPE_END
G1 X124.97 Y78.006 F9000
G1 E5 F2400
;TYPE:Solid infill
;WIDTH:0.421025
G1 F1200
G1 X126.05 Y79.086 E.04802
G1 X125.879 Y79.449 E.01262
G1 X124.313 Y77.883 E.06963
G1 X123.301 Y77.406 E.03517
G1 X125.707 Y79.812 E.10698
G1 X125.536 Y80.176 E.01264
G1 X122.289 Y76.929 E.14437
G1 X121.277 Y76.452 E.03517
G1 X125.365 Y80.539 E.18174
G1 X125.193 Y80.902 E.01263
G1 X120.265 Y75.974 E.21911
G1 X119.253 Y75.497 E.03517
G1 X125.022 Y81.266 E.2565
G1 X124.851 Y81.629 E.01262
G1 X118.241 Y75.02 E.29387
G1 X117.229 Y74.542 E.03519
G1 X124.679 Y81.992 E.33124
G1 X124.508 Y82.356 E.01264
G1 X116.217 Y74.065 E.36864
G1 X115.205 Y73.588 E.03517
G1 X124.336 Y82.719 E.40598
G1 X124.165 Y83.083 E.01264
G1 X114.193 Y73.111 E.44338
G1 X113.181 Y72.633 E.03519
G1 X123.994 Y83.446 E.48077
G1 X123.822 Y83.809 E.01263
G1 X112.169 Y72.156 E.51812
G1 X111.157 Y71.679 E.03517
G1 X123.651 Y84.173 E.55551
G1 X123.48 Y84.536 E.01262
G1 X110.145 Y71.201 E.5929
G1 X109.133 Y70.724 E.03517
G1 X123.308 Y84.899 E.63025
G1 X123.137 Y85.263 E.01264
G1 X108.121 Y70.247 E.66765
G1 X107.109 Y69.769 E.03519
G1 X122.966 Y85.626 E.70504
G1 X122.794 Y85.989 E.01263
G1 X106.097 Y69.292 E.74239
G1 X106.037 Y69.264 E.00208
G1 X105.876 Y69.605 E.01186
G1 X122.623 Y86.353 E.74463
